.local/share/icons/Gruvbox-Plus-Dark/actions/16/seahorse-sign-ok.svg

<svg xmlns="http://www.w3.org/2000/svg" width="16" height="16" version="1.1">
 <defs>
  <style id="current-color-scheme" type="text/css">
   .ColorScheme-Text { color:#565656; } .ColorScheme-Highlight { color:#4285f4; }
  </style>
 </defs>
 <path style="fill:currentColor" class="ColorScheme-Text" d="M 5 11 L 5 16 L 8 14 L 8 11 L 5 11 z"/>
 <path style="fill:currentColor" class="ColorScheme-Text" d="M 8,1 C 4.6863,1 2,3.6863 2,7 2,10.314 4.6863,13 8,13 V 13 11 11 C 5.7909,11 4,9.2091 4,7 4,4.7909 5.7909,3 8,3 10.209,3 12,4.7909 12,7 12,8.1481 11.506,9.2408 10.645,10 H 13.195 C 13.722,9.088 14,8.0533 14,7 14,3.6863 11.314,1 8,1 Z M 7.9492,4 C 6.3122,4.0277 4.9998,5.3628 5,7 5,8.6569 6.3431,10 8,10 9.6569,10 11,8.6569 11,7 11,5.3431 9.6569,4 8,4 7.9831,3.9999 7.9661,3.9999 7.9492,4 Z"/>
 <path style="fill:currentColor" class="ColorScheme-Text" d="M 15,10 12,13 10,11 9,12 12,15 16,11 Z"/>
</svg>

<svg width="16" height="16" version="1.1" xmlns="http://www.w3.org/2000/svg">
  <defs>
    <style id="current-color-scheme" type="text/css">.ColorScheme-Text { color:#ebdbb2; } .ColorScheme-Highlight { color:#458588; }</style>
  </defs>
  <path class="ColorScheme-Text" d="m8 1a6 6 0 0 0-6 6 6 6 0 0 0 3 5.18v3.82l3-2v-3a4 4 0 0 1-4-4 4 4 0 0 1 4-4 4 4 0 0 1 4 4 4 4 0 0 1-1.365 3h2.533a6 6 0 0 0 0.832-3 6 6 0 0 0-6-6zm0 3a3 3 0 0 0-3 3 3 3 0 0 0 3 3 3 3 0 0 0 3-3 3 3 0 0 0-3-3zm7 6-3 3-2-2-1 1 3 3 4-4z" fill="currentColor"/>
</svg>
